X:21
T:papirossen in Dmin
M: 4/4
L: 1/8
Q:1/4=120
K:Dmin
D|DFFA Adde|f2ed A4|feed dccB|BAAG G4|GAAe edd^c|
^cBBA AGGF|FGGF AGFE|1D4-D3:|2D4-D|]
|:Ade|f3e fed^c|dA3-A3d|d^cd^c d=cBA|ABG6|
GAAe edd^c|^cBBA AGGF|FGGF AGFE|1D4-D:|2D4-D3|]

